X:0519
T:Quick Step 10 Regt.
M:C
L:1/8
Q:1/4=86
I: :: ::
Z:Jack Campin * www.campin.me.uk * 2009
K:D
A/G/|Fddc d(AA)G  |Fd B(g/f/) (e/d/).c/.B/ AA/G/ |FdfD Ee ga/g/|g/f/e/d/ Ac d2D::
e/f/|gecA df AG/F/|GB ed      (d2          c)A/G/|FdfD Ee ga/g/|g/f/e/d/ Ac d2D:|

